X:69
T:Down the Gravel* (reel)
B:CRE2.238 (gan ainm)
F:file ID: cre.2/069down_g
S:James Byrne (Donegal)
N:Close relative of "The Gravel Walks" (parts 1 and 2)
N:I have replaced most triplets with quarter notes.
Q:180
L:1/8
M:4/4
R:reel
K:Am
A2eA (3cBA eA|A2ed BGGB|A2eA (3cBA ed|egdc BGGB|
A2eA (3cBA eA|A2ed BGGB|A2eA (3cBA ed|egdc BGG||
B|A2a2 gA^fA|A2ed BGGB|A2aA gA^fd|egdc BGGB|
A2a2 gA^fA|A2ed BGGB|Aaag aged|egdc BGGB||

%%%

